X:23102
T:Dearest Dicky
R:ig
B:Tuneworks Tunebook 2 (https://www.tuneworks.co.uk/)
G:Tuneworks
Z:Jon Warbrick <jon.warbrick@googlemail.com>
M:6/8
L:1/8
K:G
|: D | "G" G2 G BAB | "C" cBc def | "G" gfg edc | "D" BAG FED |
"G" G2 G BAB |"C" cBc def |"C" gfg"A" AB^c |"D" d3 d2 :|
|: B | "G" d2 B cde | "Am" cAB cBc | "G" d2 B cde | "C" cAB c2 d |
"C" e2 d"D" eaf |"Em" g3 gfe | "C" dcB"D" AGF |1" G" G3 GBc :|2 "G" G3 G2 |]:$
